assets/svg/antizapret.svg

<svg width="50" height="50" viewBox="0 0 50 50" fill="none" xmlns="http://www.w3.org/2000/svg">
<path d="M44.3178 22.7273C44.3178 34.6591 34.6588 44.3182 22.7271 44.3182C10.7954 44.3182 1.13635 34.6591 1.13635 22.7273C1.13635 10.7955 10.7954 1.13636 22.7271 1.13636C34.6588 1.13636 44.3178 10.7955 44.3178 22.7273Z" fill="#BBDEFB"/>
<path d="M22.7271 0L22.5407 0.00909079C10.126 0.111364 0 10.2898 0 22.7273C0 35.2273 10.2272 45.4545 22.7271 45.4545C25.5259 45.4545 28.1997 44.917 30.6815 43.9807V41.5614C30.2634 41.7398 29.8293 41.8841 29.3986 42.0352C29.8452 41.5318 30.277 40.9955 30.6815 40.3966V35.4364C29.0213 39.5625 26.5907 42.4205 23.8634 43.0489V34.0909H30.6815V31.8182H23.8634V23.8636H31.0668C31.4497 23.0568 32.1031 22.3943 32.9349 21.9932C32.9815 21.9705 33.0236 21.942 33.0713 21.9216C33.602 21.6886 34.1667 21.5818 34.7258 21.5909C34.7429 21.5909 34.7599 21.5909 34.7758 21.5909C34.9167 21.5955 35.0576 21.6125 35.1974 21.6318C35.9929 21.7409 36.7554 22.0841 37.3701 22.6568L38.6621 23.8636H43.1235C43.053 25.117 42.8735 26.3398 42.586 27.525L44.4746 29.2875C45.1064 27.208 45.4541 25.0068 45.4541 22.7273C45.4541 10.2273 35.227 0 22.7271 0ZM16.0555 3.41932C14.3112 5.38523 12.876 8.11477 11.8658 11.3636H5.77949C8.23629 7.71477 11.8306 4.89091 16.0555 3.41932ZM4.46587 13.6227C4.49428 13.6239 4.51587 13.6364 4.54541 13.6364H11.2488C10.6783 16.083 10.3317 18.7591 10.2579 21.5909H2.33066C2.48975 18.7398 3.24883 16.0477 4.46587 13.6227ZM4.44314 31.8193C3.22952 29.3955 2.48861 26.7068 2.33066 23.8636H10.2579C10.3317 26.6909 10.6635 29.3727 11.234 31.8182H9.09083H4.54541C4.54087 31.8182 4.50223 31.8182 4.44314 31.8193ZM5.74654 34.0909H11.8567C12.8692 37.3466 14.3112 40.0682 16.0567 42.0352C11.8249 40.5625 8.20788 37.75 5.74654 34.0909ZM21.5907 43.0443C18.5737 42.35 15.9169 38.9398 14.2669 34.0909H21.5907V43.0443ZM21.5907 31.8182H14.7726H13.6067C12.9885 29.3886 12.6101 26.6966 12.5294 23.8636H21.5907V31.8182ZM21.5907 21.5909H12.5294C12.6112 18.7557 12.9999 16.0682 13.6169 13.6364H21.5907V21.5909ZM21.5907 11.3636H14.2896C15.9362 6.52159 18.5782 3.11023 21.5907 2.41477V11.3636ZM23.8634 2.41477C26.8759 3.10909 29.5179 6.52159 31.1645 11.3636H23.8634V2.41477ZM23.8634 21.5909V13.6364H31.8372C32.4543 16.0682 32.8429 18.7557 32.9247 21.5909H23.8634ZM29.3986 3.41932C33.6236 4.89091 37.219 7.71591 39.6758 11.3636H33.5895C32.5781 8.11477 31.1418 5.38409 29.3986 3.41932ZM35.1963 21.5909C35.1224 18.7591 34.7758 16.083 34.2054 13.6364H40.9087C40.9383 13.6364 40.9599 13.6239 40.9883 13.6227C42.2053 16.0489 42.9644 18.7398 43.1235 21.5909H35.1963Z" fill="#F54245"/>
<path d="M31.0668 23.8636C30.819 24.3864 30.6815 24.9659 30.6815 25.5682V31.8182H31.8474C32.4656 29.3886 32.844 26.6966 32.9247 23.8636H31.0668ZM35.1963 23.8636C35.1224 26.6909 34.7906 29.3727 34.2201 31.8182H35.227V26.8739L40.5235 31.8182H40.9087C40.9439 31.8182 40.9701 31.833 41.0042 31.8352C41.6871 30.4761 42.2189 29.0341 42.586 27.5261L38.6621 23.8636H35.1963ZM33.5974 34.0909C32.844 36.5136 31.8588 38.6534 30.6815 40.3966V41.5614C32.3202 40.8636 33.8383 39.9432 35.227 38.8636V34.0909H33.5974ZM30.6815 34.0909V35.4364C30.8577 34.9989 31.0293 34.5557 31.1872 34.0909H30.6815Z" fill="#C5E3FC"/>
<path d="M42.586 27.525C42.2189 29.033 41.6871 30.475 41.0042 31.8341C40.9553 31.933 40.911 32.0341 40.8599 32.1318L42.0019 33.1977L42.5792 33.7364C43.361 32.3364 43.9996 30.8477 44.4746 29.2875L42.586 27.525ZM35.227 38.8636C33.8383 39.9432 32.3202 40.8636 30.6815 41.5614V43.9807C32.2883 43.375 33.8156 42.608 35.227 41.6716V38.8636ZM38.6621 23.8636L37.3701 22.6568C36.7554 22.0841 35.9929 21.7409 35.1974 21.6318C35.0576 21.6125 34.9167 21.5943 34.7758 21.5909H34.7258C34.1667 21.5818 33.6031 21.6875 33.0713 21.9216C33.0236 21.942 32.9815 21.9705 32.9349 21.9932C32.1031 22.3943 31.4497 23.058 31.0668 23.8636H32.9247C32.8429 26.6966 32.4656 29.3886 31.8474 31.8182H30.6815V34.0909H31.1872C31.0293 34.5557 30.8577 34.9989 30.6815 35.4364V40.3966C31.8588 38.6534 32.844 36.5136 33.5974 34.0909H35.227V31.8182H34.2201C34.7906 29.3727 35.1235 26.6909 35.1963 23.8636H38.6621Z" fill="#90CAF9"/>
<path d="M43.011 48.8636C42.9417 48.8636 42.8723 48.8511 42.8064 48.825C42.6633 48.7705 42.5496 48.6602 42.4883 48.5205L39.1724 40.8545L35.0463 44.7318C34.8804 44.8875 34.6395 44.9284 34.4315 44.8398C34.2258 44.75 34.0906 44.5443 34.0906 44.3182V25.5682C34.0906 25.342 34.2247 25.1375 34.4326 25.0466C34.6395 24.9557 34.8815 24.9977 35.0474 25.1523L48.6837 37.8795C48.8473 38.033 48.9064 38.2693 48.8337 38.4807C48.7598 38.6932 48.5689 38.842 48.345 38.8614L42.5576 39.3602L46.028 46.9227C46.0905 47.0602 46.0973 47.217 46.0439 47.3591C45.9905 47.5011 45.8848 47.6159 45.7473 47.6784L43.2473 48.8148C43.1712 48.8466 43.0917 48.8636 43.011 48.8636Z" fill="#FAFAFA"/>
<path d="M49.4586 37.05L35.8224 24.3216C35.3247 23.858 34.6008 23.733 33.9792 24.0057C33.3565 24.2761 32.9542 24.8898 32.9542 25.5682V44.3182C32.9542 44.9989 33.3577 45.6125 33.9849 45.8841C34.6076 46.1523 35.3304 46.025 35.8258 45.5602L38.4462 43.0977L41.1985 49.3227C41.386 49.7477 41.803 50 42.2383 50C42.361 50 42.4826 49.9636 42.6042 49.9227C42.6348 49.9125 46.9234 48.017 46.9609 47.9955C47.1814 47.8659 47.3643 47.6807 47.4575 47.4398C47.5666 47.158 47.5587 46.8455 47.4371 46.5693L44.6723 40.3182L48.4439 39.9932C49.1132 39.9352 49.6882 39.4864 49.9075 38.8523C50.1257 38.217 49.9507 37.5091 49.4586 37.05ZM41.3064 38.3273L44.8985 46.4477L42.8189 47.3659L39.2269 39.2455L35.227 43.0045V26.875L46.9746 37.8386L41.3064 38.3273Z" fill="#455A64"/>
</svg>

<svg xmlns="http://www.w3.org/2000/svg" width="50" height="50" fill="none" viewBox="0 0 50 50"><path fill="#bbdefb" d="M44.318 22.727c0 11.932-9.66 21.591-21.59 21.591-11.933 0-21.592-9.659-21.592-21.59 0-11.933 9.66-21.592 21.591-21.592s21.59 9.66 21.59 21.591"/><path fill="#f54245" d="m22.727 0-.186.01C10.126.11 0 10.29 0 22.726c0 12.5 10.227 22.728 22.727 22.728 2.799 0 5.473-.538 7.954-1.474v-2.42c-.418.179-.852.323-1.282.474a16 16 0 0 0 1.282-1.638v-4.96c-1.66 4.126-4.09 6.983-6.818 7.612V34.09h6.819v-2.273h-6.819v-7.954h7.204a3.97 3.97 0 0 1 1.868-1.87c.046-.023.089-.052.136-.072a3.95 3.95 0 0 1 1.655-.331h.05c.14.005.282.021.421.04.796.11 1.558.453 2.173 1.026l1.292 1.207h4.462a20.4 20.4 0 0 1-.538 3.661l1.889 1.763c.631-2.08.98-4.281.98-6.56C45.454 10.227 35.226 0 22.726 0m-6.672 3.42c-1.744 1.965-3.179 4.695-4.19 7.944H5.78a20.6 20.6 0 0 1 10.276-7.945M4.465 13.622c.03 0 .05.013.08.013h6.704c-.57 2.447-.917 5.123-.991 7.955H2.33c.159-2.851.918-5.543 2.135-7.968m-.022 18.196a20.2 20.2 0 0 1-2.112-7.955h7.927c.074 2.827.406 5.509.976 7.954H4.545zm1.304 2.272h6.11c1.012 3.256 2.454 5.977 4.2 7.944a20.6 20.6 0 0 1-10.31-7.944m15.844 8.953c-3.017-.694-5.674-4.104-7.324-8.953h7.324zm0-11.226h-7.984c-.618-2.43-.997-5.121-1.078-7.954h9.062zm0-10.227h-9.062c.082-2.835.47-5.523 1.088-7.955h7.974zm0-10.227H14.29c1.646-4.842 4.288-8.254 7.3-8.95zm2.272-8.95c3.013.695 5.655 4.108 7.302 8.95h-7.302zm0 19.177v-7.955h7.974a36.8 36.8 0 0 1 1.088 7.955zM29.4 3.419a20.6 20.6 0 0 1 10.277 7.945h-6.087c-1.01-3.25-2.447-5.98-4.19-7.945m5.797 18.172c-.074-2.832-.42-5.508-.99-7.955h6.703c.03 0 .05-.012.08-.013a20.25 20.25 0 0 1 2.135 7.968z"/><path fill="#c5e3fc" d="M31.067 23.864a4 4 0 0 0-.386 1.704v6.25h1.166c.619-2.43.997-5.121 1.078-7.954zm4.13 0c-.075 2.827-.406 5.509-.977 7.954h1.007v-4.944l5.297 4.944h.385c.035 0 .061.015.095.017a20.3 20.3 0 0 0 1.582-4.309l-3.924-3.662zm-1.6 10.227c-.753 2.423-1.738 4.562-2.916 6.306v1.164a20.5 20.5 0 0 0 4.546-2.697V34.09zm-2.916 0v1.345c.177-.437.348-.88.506-1.345z"/><path fill="#90caf9" d="M42.586 27.525a20.3 20.3 0 0 1-1.582 4.31c-.049.098-.093.2-.144.297l1.142 1.066.577.538c.782-1.4 1.42-2.888 1.896-4.448zm-7.359 11.339c-1.389 1.08-2.907 2-4.545 2.697v2.42a22.7 22.7 0 0 0 4.545-2.31zm3.435-15-1.292-1.207a3.97 3.97 0 0 0-2.173-1.025c-.14-.02-.28-.038-.421-.041h-.05a3.9 3.9 0 0 0-1.655.33c-.047.021-.09.05-.136.072a3.97 3.97 0 0 0-1.868 1.87h1.858c-.082 2.834-.46 5.526-1.078 7.955h-1.166v2.273h.506c-.158.465-.33.908-.506 1.345v4.96c1.178-1.743 2.163-3.882 2.916-6.305h1.63v-2.273H34.22c.57-2.445.904-5.127.976-7.954z"/><path fill="#fafafa" d="M43.011 48.864a.57.57 0 0 1-.523-.343l-3.316-7.666-4.126 3.877a.57.57 0 0 1-.614.108.57.57 0 0 1-.341-.522v-18.75a.57.57 0 0 1 .956-.416L48.684 37.88a.569.569 0 0 1-.339.982l-5.787.498 3.47 7.563a.57.57 0 0 1-.28.755l-2.5 1.137a.6.6 0 0 1-.237.049"/><path fill="#455a64" d="M49.459 37.05 35.822 24.322a1.7 1.7 0 0 0-1.843-.316 1.7 1.7 0 0 0-1.025 1.562v18.75a1.705 1.705 0 0 0 2.872 1.242l2.62-2.462 2.753 6.225c.187.425.604.677 1.04.677.122 0 .244-.036.365-.077.03-.01 4.32-1.906 4.357-1.928.22-.13.403-.314.497-.555.109-.282.1-.594-.02-.87l-2.766-6.252 3.772-.325a1.71 1.71 0 0 0 1.463-1.14 1.71 1.71 0 0 0-.448-1.803m-8.153 1.277 3.593 8.12-2.08.919-3.592-8.12-4 3.758V26.876l11.748 10.964z"/></svg>
